X: 77
T: Ave regina celorum
C: Gaspar van Weerbeke
%%abc-version 2.0
%%abcx-abcm2ps-target-version 5.9.1 (29 Sep 2008)
%%abc-creator hum2abc beta
%%abcx-conversion-date 2022/03/06 13:05:58
%%abc-copyright Copyright 2008, Pavanello, Agnese
%%abc-edited-by Mair-Gruber, Roland
%%humdrum-veritas 3254711113
%%humdrum-veritas-data 435670139
%%linebreak <none>
%%barnumbers 0
L: 1/4
M: 3/2
N: Derived from Gas0403-Ave_regina_celorum.krn
%%staves [1 2 3 4]
V: 1 clef=treble-8
V: 2 clef=treble-8
V: 3 clef=bass
V: 4 clef=bass
K: F
[V:1] f6- | 
[V:2] F2F>GAB- | 
[V:3] z6 | 
[V:4] z6 | 
[V:1] f6 | 
[V:2] B/c/d2c/B/AB | 
[V:3] z6 | 
[V:4] z6 | 
[V:1] e2>c2d2 | 
[V:2] cC>DEFG | 
[V:3] z6 | 
[V:4] z6 | 
[V:1] c/B/A/G/Ff2e | 
[V:2] Ac2AG2 | 
[V:3] z6 | 
[V:4] z6 | 
[V:1] f4z2 | 
[V:2] F4z2 | 
[V:3] F,6- | 
[V:4] F,,2F,,>G,,A,,B,,- | 
[V:1] z6 | 
[V:2] z6 | 
[V:3] F,6 | 
[V:4] B,,/A,,/B,,/A,,/F,,B,,A,,B,, | 
[V:1] z6 | 
[V:2] z6 | 
[V:3] E,4D,2 | 
[V:4] C,>B,,G,,C,2B,, | 
[V:1] z6 | 
[V:2] z6 | 
[V:3] E,>C, D,/C,/F,2E, | 
[V:4] C,>A,, B,,/C,/A,,G,,2 | 
[V:1] A2A>Bcd | 
[V:2] C2>D2CF- | 
[V:3] F,6 | 
[V:4] F,,2F,,>G,,A,,B,, | 
[V:1] cf2e/d/c2 | 
[V:2] F/G/ADB,C2 | 
[V:3] F,6 | 
[V:4] A,,F,,B,,2A,,2 | 
[V:1] B2B>cde | 
[V:2] D2>E2DG- | 
[V:3] G,6- | 
[V:4] G,,2G,,>A,,B,,C, | 
[V:1] dg2f/e/d2 | 
[V:2] G/A/BcCD2 | 
[V:3] G,6 | 
[V:4] B,,G,,C,2B,,2 | 
[V:1] c2c>def- | 
[V:2] E2>F2ED | 
[V:3] A,6- | 
[V:4] A,,2A,,>B,,C,D, | 
[V:1] f/e/cfe/f/ g/f/e/d/ | 
[V:2] EA>BcdD | 
[V:3] A,4G,2 | 
[V:4] C,A,,D,C,B,,2 | 
[V:1] c2efg2 | 
[V:2] E2CDz2 | 
[V:3] A,4B,2 | 
[V:4] A,,2z2G,,2 | 
[V:1] eagf2e | 
[V:2] A2Bcdc | 
[V:3] C2B,A,G,2 | 
[V:4] A,,F,,G,,A,,B,,C, | 
[V:1] f2z2z2 | 
[V:2] A2>d2Bc | 
[V:3] F,4z2 | 
[V:4] D,2>B,,2_E,3/D,/ | 
[V:1] f4e2 | 
[V:2] d>cBFGA | 
[V:3] z6 | 
[V:4] B,,>A,,B,,D,C,2 | 
[V:1] d2c4 | 
[V:2] B>cA2A3/B/ | 
[V:3] F,6- | 
[V:4] B,,2F,,4- | 
[V:1] A2G3g- | 
[V:2] cd2c2B | 
[V:3] F,2E,2D,2 | 
[V:4] F,,2z2G,,2 | 
[V:1] ge2cde | 
[V:2] c2GAG2 | 
[V:3] E,G,2F,2E, | 
[V:4] C,2>A,,2B,,C, | 
[V:1] A>BAd2c | 
[V:2] z2z2C2 | 
[V:3] F,2F,2G,2 | 
[V:4] D,2>F,2E,2 | 
[V:1] d>e f/e/f/e/cf | 
[V:2] F2z2c2- | 
[V:3] A,4A,2 | 
[V:4] D,>C, D,/C,/D,/C,/A,,F,, | 
[V:1] ed/ef/gc2 | 
[V:2] cd/cB//A//GF2 | 
[V:3] G,4A,2 | 
[V:4] C,B,,/C,D,/E,F,3/E,/ | 
[V:1] fg2<a2g/f/ | 
[V:2] z2CF2E/D/ | 
[V:3] B,2C4 | 
[V:4] D,/C,/B,,A,,F,,z2 | 
[V:1] eg2f2e | 
[V:2] CE2FCc- | 
[V:3] CB,CA,G,2 | 
[V:4] z2zF,,C,2 | 
[V:1] f4z2 | 
[V:2] cdcAG2 | 
[V:3] F,2z2z2 | 
[V:4] F,,B,,A,,G,,/F,,/E,,2 | 
[V:1] c2d2e3/f/ | 
[V:2] A>G F/E/DC3/D/ | 
[V:3] F,4G,2- | 
[V:4] F,,2z2z2 | 
[V:1] g2f>ga2 | 
[V:2] E2z2C2 | 
[V:3] G,2A,4 | 
[V:4] E,,2F,,4 | 
[V:1] g>fd2cf | 
[V:2] _B,2D>EF3/E/ | 
[V:3] B,4A,2 | 
[V:4] G,,2B,,2F,,2 | 
[V:1] ea2fg2 | 
[V:2] CA,zCD2 | 
[V:3] G,C2A,2G, | 
[V:4] C,4B,,2 | 
[V:1] c2c2A3/B/ | 
[V:2] E4F3/G/ | 
[V:3] A,4z2 | 
[V:4] A,,4D,3/C,/ | 
[V:1] cdecf2 | 
[V:2] ABGc2=B | 
[V:3] z6 | 
[V:4] A,,G,,C,2D,2 | 
[V:1] e>fgad3/e/ | 
[V:2] c2z2z2 | 
[V:3] C4B,2- | 
[V:4] C,>D,E,A,,B,,3/C,/ | 
[V:1] fgc>def | 
[V:2] z6 | 
[V:3] B,2A,4 | 
[V:4] D,G,,A,,>B,,C,F,, | 
[V:1] B>cdeA3/B/ | 
[V:2] z2z2c3/B/ | 
[V:3] G,4F,2- | 
[V:4] G,,>A,,B,,C,F,,3/G,,/ | 
[V:1] c/d/ecf2e | 
[V:2] AGAc>Bc | 
[V:3] F,E,F,2G,2 | 
[V:4] A,,/B,,/C,A,,F,,C,2 | 
[V:1] f6 | 
[V:2] A2Bd>cB | 
[V:3] F,6- | 
[V:4] D,2B,,4 | 
[V:1] z6 | 
[V:2] A4c2 | 
[V:3] F,6 | 
[V:4] F,,6 | 
[V:1] g2fged | 
[V:2] BcAGcB | 
[V:3] z6 | 
[V:4] z6 | 
[V:1] zgfd>cA- | 
[V:2] G>FD>EF3/E/ | 
[V:3] z6 | 
[V:4] z6 | 
[V:1] A/B<cB<GA/B/c/ | 
[V:2] C2C2z2 | 
[V:3] z6 | 
[V:4] z2z2G,,2- | 
[V:1] dedc2=B | 
[V:2] G2>E2D2 | 
[V:3] z6 | 
[V:4] G,,6 | 
[V:1] c2GAB3/G/ | 
[V:2] C2DEF3/D/ | 
[V:3] z6 | 
[V:4] A,,2B,,C,D,3/B,,/ | 
[V:1] ABc>ABc | 
[V:2] EFG>EFG | 
[V:3] z6 | 
[V:4] C,D,E,>C,D,E, | 
[V:1] dfed2^c | 
[V:2] A>BcA2G | 
[V:3] z6 | 
[V:4] F,>E,C,D,E,2 | 
[V:1] d2cd>ef | 
[V:2] A2A2BA | 
[V:3] F,4D,2 | 
[V:4] D,2z2z2 | 
[V:1] ged2z2 | 
[V:2] Gc2=Bc2 | 
[V:3] E,C,D,2C,2 | 
[V:4] z2G,,2A,,C,- | 
[V:1] z2c2df- | 
[V:2] ABG2z2 | 
[V:3] D,F,2E,F,2 | 
[V:4] C,B,,C,2F,,2 | 
[V:1] fef2zg | 
[V:2] C2DF2E | 
[V:3] G,2F,2z2 | 
[V:4] z2z2C,2 | 
[V:1] a2b2af | 
[V:2] FAG2c2 | 
[V:3] zF,G,2A,2 | 
[V:4] F,,F,2E,F,2 | 
[V:1] g/f/e/d/cf2e | 
[V:2] z2F/G/A/B/c2 | 
[V:3] B,2A,F,G,2 | 
[V:4] B,,2zD,C,2 | 
[V:1] dc2B/A<Bc/ | 
[V:2] z2C2DE | 
[V:3] F,E,F,A,G,2 | 
[V:4] F,,A,,>G,,F,,2E,, | 
[V:1] !fermata!A4 ||  
[V:2] !fermata!C4 ||  
[V:3] !fermata!F,4 ||  
[V:4] !fermata!F,,4 ||  
[V:1] [M:2/2]f4- | 
[V:2] [M:2/2]z4 | 
[V:3] [M:2/2]F,4 | 
[V:4] [M:2/2]z4 | 
[V:1] f4 | 
[V:2] z4 | 
[V:3] F,2A,2- | 
[V:4] z4 | 
[V:1] e3c | 
[V:2] z4 | 
[V:3] A,B,C2- | 
[V:4] z4 | 
[V:1] d4 | 
[V:2] z4 | 
[V:3] C2=B,2 | 
[V:4] z4 | 
[V:1] c>B A/G/F | 
[V:2] z4 | 
[V:3] C4 | 
[V:4] z4 | 
[V:1] EFG2 | 
[V:2] z4 | 
[V:3] C2B,2 | 
[V:4] z4 | 
[V:1] F2zf- | 
[V:2] z4 | 
[V:3] A,3F, | 
[V:4] z4 | 
[V:1] fe/d/ e/d/c/B/ | 
[V:2] z4 | 
[V:3] G,4 | 
[V:4] z4 | 
[V:1] AB>Ac- | 
[V:2] z4 | 
[V:3] F,G,>F,A,- | 
[V:4] z4 | 
[V:1] cAG2 | 
[V:2] z4 | 
[V:3] A,F,2E, | 
[V:4] z4 | 
[V:1] F4 | 
[V:2] F4- | 
[V:3] F,4 | 
[V:4] F,,4 | 
[V:1] z4 | 
[V:2] F4 | 
[V:3] z4 | 
[V:4] F,,2A,,2- | 
[V:1] z4 | 
[V:2] E3C | 
[V:3] z4 | 
[V:4] A,,B,,C,2- | 
[V:1] z4 | 
[V:2] D4 | 
[V:3] z4 | 
[V:4] C,2=B,,2 | 
[V:1] z4 | 
[V:2] Cc>BA- | 
[V:3] z4 | 
[V:4] C,4- | 
[V:1] z4 | 
[V:2] AG/F/ G/F/E/D/ | 
[V:3] z4 | 
[V:4] C,2B,,2 | 
[V:1] z2A2 | 
[V:2] C2F2- | 
[V:3] z4 | 
[V:4] A,,3F,, | 
[V:1] B3G | 
[V:2] F2E2 | 
[V:3] z4 | 
[V:4] G,,4 | 
[V:1] ABcd | 
[V:2] Fc2B | 
[V:3] z4 | 
[V:4] F,,>G,,A,,B,, | 
[V:1] ef2e | 
[V:2] AFG2 | 
[V:3] z4 | 
[V:4] C,D,C,2 | 
[V:1] f3e/d/ | 
[V:2] F4 | 
[V:3] F,4- | 
[V:4] F,,4- | 
[V:1] c4 | 
[V:2] A4 | 
[V:3] F,4 | 
[V:4] F,,4 | 
[V:1] d3c | 
[V:2] D>EF2 | 
[V:3] F,2D,2- | 
[V:4] B,,4 | 
[V:1] B2A2 | 
[V:2] G2C2 | 
[V:3] D,2F,2 | 
[V:4] G,,2F,,2 | 
[V:1] Gc2B/A/ | 
[V:2] zCEF | 
[V:3] E,2C,2 | 
[V:4] C,2A,,2 | 
[V:1] B2AB- | 
[V:2] G2AG | 
[V:3] D,4 | 
[V:4] G,,2F,,G,,- | 
[V:1] B/c<de/c- | 
[V:2] D>EF2 | 
[V:3] B,,2C,2 | 
[V:4] G,,B,,A,,2 | 
[V:1] cBBA/B/ | 
[V:2] G4 | 
[V:3] D,4 | 
[V:4] G,,4 | 
[V:1] c3B/A/ | 
[V:2] E2C2- | 
[V:3] C,4- | 
[V:4] A,,3G,,/F,,/ | 
[V:1] GFG2 | 
[V:2] Cc>BG | 
[V:3] C,4 | 
[V:4] E,,F,,2E,, | 
[V:1] c2B2 | 
[V:2] A2BG | 
[V:3] C,2D,2- | 
[V:4] F,,A,,G,,2 | 
[V:1] ABd2 | 
[V:2] AGB2 | 
[V:3] D,2D,2 | 
[V:4] F,,G,,2B,, | 
[V:1] c2Bc | 
[V:2] cABA | 
[V:3] E,4 | 
[V:4] A,,2G,,A,,- | 
[V:1] e2d2 | 
[V:2] c2dB | 
[V:3] E,2F,2- | 
[V:4] A,,C,B,,2 | 
[V:1] cdf2 | 
[V:2] cBd2 | 
[V:3] F,2F,2 | 
[V:4] A,,B,,2D, | 
[V:1] e2de | 
[V:2] ecdc- | 
[V:3] G,4 | 
[V:4] C,2B,,C,- | 
[V:1] g2fa- | 
[V:2] c2F3/G/ | 
[V:3] G,2A,2 | 
[V:4] C,E,D,F,- | 
[V:1] ag/f/e2 | 
[V:2] A/B/c2c | 
[V:3] F,A,G,2 | 
[V:4] F,F,,C,2 | 
[V:1] f4- | 
[V:2] A4 | 
[V:3] F,4 | 
[V:4] F,,4 | 
[V:1] f4 | 
[V:2] F4 | 
[V:3] z4 | 
[V:4] F,,>G,,A,,B,, | 
[V:1] z4 | 
[V:2] G4 | 
[V:3] z4 | 
[V:4] B,,C,B,,C,- | 
[V:1] z4 | 
[V:2] A4 | 
[V:3] z4 | 
[V:4] C,D,C,D,- | 
[V:1] z4 | 
[V:2] B4 | 
[V:3] z4 | 
[V:4] D,/C,/B,,/A,,/G,,2 | 
[V:1] z4 | 
[V:2] A2FB- | 
[V:3] z4 | 
[V:4] F,,F,2G,- | 
[V:1] z4 | 
[V:2] BAG2 | 
[V:3] z4 | 
[V:4] G,F,2E, | 
[V:1] f4 | 
[V:2] F>GAB- | 
[V:3] z4 | 
[V:4] F,2z2 | 
[V:1] g4 | 
[V:2] BcBc- | 
[V:3] z4 | 
[V:4] z4 | 
[V:1] a4 | 
[V:2] cdcd- | 
[V:3] z4 | 
[V:4] z2F,,2 | 
[V:1] b4 | 
[V:2] d/c/B/A/G2 | 
[V:3] z4 | 
[V:4] G,,4 | 
[V:1] a2f2 | 
[V:2] F2z2 | 
[V:3] z4 | 
[V:4] A,,4 | 
[V:1] g3/f//e//d2 | 
[V:2] z4 | 
[V:3] z4 | 
[V:4] B,,4 | 
[V:1] cdcd- | 
[V:2] z4 | 
[V:3] F,4 | 
[V:4] A,,F,,A,,B,, | 
[V:1] dede- | 
[V:2] z4 | 
[V:3] G,4 | 
[V:4] G,,2z2 | 
[V:1] efef- | 
[V:2] z4 | 
[V:3] A,4 | 
[V:4] z4 | 
[V:1] fg>fe/d/ | 
[V:2] z4 | 
[V:3] B,4 | 
[V:4] z2E,,2 | 
[V:1] c2cf- | 
[V:2] z4 | 
[V:3] A,2CB, | 
[V:4] F,,>G,,A,,B,, | 
[V:1] fefg- | 
[V:2] c2AG- | 
[V:3] G,2F,B,- | 
[V:4] C,2D,E,- | 
[V:1] gf2e | 
[V:2] Gc2c | 
[V:3] B,A,G,2 | 
[V:4] E,F,C,2 | 
[V:1] f3e/d/ | 
[V:2] A2AB | 
[V:3] !fermata!F,4- | 
[V:4] F,,4 | 
[V:1] c2zB- | 
[V:2] c2d2 | 
[V:3] F,4- | 
[V:4] A,,2B,,2- | 
[V:1] Bcd2 | 
[V:2] dcB2 | 
[V:3] F,4- | 
[V:4] B,,A,,B,,2 | 
[V:1] !fermata!c4 ||  
[V:2] !fermata!A4 ||  
[V:3] F,4 ||  
[V:4] !fermata!F,,4 ||  
[V:1] z4 | 
[V:2] z4 | 
[V:3] z4 | 
[V:4] F,,4 | 
[V:1] z4 | 
[V:2] z4 | 
[V:3] z4 | 
[V:4] G,,4 | 
[V:1] z4 | 
[V:2] F4 | 
[V:3] z4 | 
[V:4] A,,2B,,2- | 
[V:1] z4 | 
[V:2] G4 | 
[V:3] z4 | 
[V:4] B,,2C,2- | 
[V:1] c4 | 
[V:2] A4 | 
[V:3] z4 | 
[V:4] C,B,,A,,2- | 
[V:1] d4 | 
[V:2] B4 | 
[V:3] z4 | 
[V:4] A,,2G,,2 | 
[V:1] c2cd- | 
[V:2] A2AB- | 
[V:3] z4 | 
[V:4] A,,2z2 | 
[V:1] d/c/B/A/B2 | 
[V:2] B/A/G/F/G2 | 
[V:3] z4 | 
[V:4] z4 | 
[V:1] A2z2 | 
[V:2] A2z2 | 
[V:3] F,4- | 
[V:4] F,,>G,,A,,B,, | 
[V:1] z4 | 
[V:2] z4 | 
[V:3] F,4 | 
[V:4] F,,B,,>C,D, | 
[V:1] z4 | 
[V:2] z4 | 
[V:3] G,4- | 
[V:4] C,>B,,G,,C,- | 
[V:1] z4 | 
[V:2] z4 | 
[V:3] G,4 | 
[V:4] C,B,,/A,,/G,,2 | 
[V:1] c>def | 
[V:2] z4 | 
[V:3] A,4- | 
[V:4] F,,2z2 | 
[V:1] cf>ga | 
[V:2] z4 | 
[V:3] A,4 | 
[V:4] z4 | 
[V:1] g>fdg- | 
[V:2] z4 | 
[V:3] B,4- | 
[V:4] z4 | 
[V:1] gf/e/d2 | 
[V:2] z2G2 | 
[V:3] B,4 | 
[V:4] z2G,,2 | 
[V:1] c2z2 | 
[V:2] E>DEF- | 
[V:3] A,2A,B,- | 
[V:4] A,,>B,,C,D,- | 
[V:1] z2d2 | 
[V:2] F/E/D/C/D2 | 
[V:3] B,/A,/G,/F,/G,2 | 
[V:4] D,/C,/B,,/A,,/B,,2 | 
[V:1] c3d | 
[V:2] E2C2 | 
[V:3] A,4 | 
[V:4] A,,3B,, | 
[V:1] efef- | 
[V:2] z4 | 
[V:3] A,2A,2- | 
[V:4] C,D,C,D,- | 
[V:1] fd2c | 
[V:2] z2C2 | 
[V:3] A,2G,2 | 
[V:4] D,F,E,2 | 
[V:1] d2ef | 
[V:2] F2A3/B/ | 
[V:3] A,4- | 
[V:4] D,2C,D, | 
[V:1] ef2e/d/ | 
[V:2] c/B/A/G<FG/ | 
[V:3] A,4 | 
[V:4] C,D,2C,/B,,/ | 
[V:1] c>dec | 
[V:2] A>FGA | 
[V:3] C4 | 
[V:4] A,,F,E,F, | 
[V:1] ga2g/f/ | 
[V:2] GFA3/B/ | 
[V:3] C2C2- | 
[V:4] E,F,2E,/D,/ | 
[V:1] e>cf2 | 
[V:2] cG2F | 
[V:3] C2B,2 | 
[V:4] C,E,D,2 | 
[V:1] e4- | 
[V:2] G2E2 | 
[V:3] C2C2- | 
[V:4] C,4 | 
[V:1] e2d2- | 
[V:2] F2G2- | 
[V:3] C2B,2- | 
[V:4] A,,2G,,2- | 
[V:1] def2 | 
[V:2] G2C2- | 
[V:3] B,2A,2 | 
[V:4] G,,2F,,2 | 
[V:1] g3e | 
[V:2] CDE2 | 
[V:3] G,4 | 
[V:4] C,4 | 
[V:1] d2c2 | 
[V:2] F2E2- | 
[V:3] F,2A,2- | 
[V:4] D,2A,,2 | 
[V:1] d3B | 
[V:2] E2D2 | 
[V:3] A,2G,2 | 
[V:4] B,,4 | 
[V:1] !fermata!c4 ||  
[V:2] !fermata!E4 ||  
[V:3] !fermata!A,4 ||  
[V:4] !fermata!A,,4 ||  
[V:1] [M:3/2]c4B2 | 
[V:2] [M:3/2]E4D2 | 
[V:3] [M:3/2]z6 | 
[V:4] [M:3/2]z6 | 
[V:1] c2d3c | 
[V:2] E2F4 | 
[V:3] z6 | 
[V:4] z6 | 
[V:1] c4=B2 | 
[V:2] E2D4 | 
[V:3] z6 | 
[V:4] z6 | 
[V:1] c4e2 | 
[V:2] C4z2 | 
[V:3] A,4G,2 | 
[V:4] F,,4C,2 | 
[V:1] f2g3f | 
[V:2] c2d4 | 
[V:3] A,2B,4 | 
[V:4] A,,2G,,4 | 
[V:1] f4e2 | 
[V:2] c2d2c2 | 
[V:3] A,2G,4 | 
[V:4] A,,2B,,2C,2 | 
[V:1] f6 | 
[V:2] A6 | 
[V:3] F,6 | 
[V:4] D,4B,,2 | 
[V:1] z6 | 
[V:2] z6 | 
[V:3] G,4F,2 | 
[V:4] _E,4D,2 | 
[V:1] g4f2 | 
[V:2] z6 | 
[V:3] E,2D,4 | 
[V:4] C,4B,,2 | 
[V:1] e2d4 | 
[V:2] c4=B2 | 
[V:3] z6 | 
[V:4] C,2G,,4 | 
[V:1] c4z2 | 
[V:2] c4G2 | 
[V:3] C,2>D,2E,2 | 
[V:4] z6 | 
[V:1] c2>d2e2 | 
[V:2] A2>G2E2 | 
[V:3] F,4G,2 | 
[V:4] F,,4C,2 | 
[V:1] f4g2 | 
[V:2] C2>D2E2 | 
[V:3] A,4G,2 | 
[V:4] A,,2F,,2C,2 | 
[V:1] a4g2 | 
[V:2] F4C2 | 
[V:3] F,2C4 | 
[V:4] F,,4z2 | 
[V:1] f2g3f | 
[V:2] D2_E3C | 
[V:3] A,2B,3C | 
[V:4] F,,2_E,,4 | 
[V:1] f4e2 | 
[V:2] C4c2 | 
[V:3] A,2G,4 | 
[V:4] F,,2C,4 | 
[V:1] f6- | 
[V:2] A2>B2d2 | 
[V:3] F,6- | 
[V:4] F,,6- | 
[V:1] f6 |]  
[V:2] c6 |]  
[V:3] F,6 |]  
[V:4] F,,6 |]  


